app/assets/images/icons/active/filter.svg

<?xml version="1.0" encoding="UTF-8" standalone="no"?>
<svg width="32px" height="232px" viewBox="0 0 32 232" version="1.1" xmlns="http://www.w3.org/2000/svg" xmlns:xlink="http://www.w3.org/1999/xlink" xmlns:sketch="http://www.bohemiancoding.com/sketch/ns">
    <title>filter</title>
    <description>Created with Sketch (http://www.bohemiancoding.com/sketch)</description>
    <defs></defs>
    <g id="Actions" stroke="none" stroke-width="1" fill="none" fill-rule="evenodd" sketch:type="MSPage">
        <path d="M1.5,120 L14.197292,136.909576 L14.197292,152 L17.86146,147.213576 L17.86146,136.833939 L30.5,120 L1.5,120 L1.5,120 L1.5,120 L1.5,120 Z M16.0009792,134.276848 L9.39137628,125.474909 L22.6086237,125.474909 L16.0009792,134.276848 L16.0009792,134.276848 Z M16.0009792,134.276848" id="filter--lp-blue" fill="#206FAC" sketch:type="MSShapeGroup"></path>
        <path d="M1.5,80 L14.197292,96.9095758 L14.197292,112 L17.86146,107.213576 L17.86146,96.8339394 L30.5,80 L1.5,80 L1.5,80 L1.5,80 L1.5,80 Z M16.0009792,94.2768485 L9.39137628,85.4749091 L22.6086237,85.4749091 L16.0009792,94.2768485 L16.0009792,94.2768485 Z M16.0009792,94.2768485" id="filter--white" fill="#FFFFFF" sketch:type="MSShapeGroup"></path>
        <path d="M1.5,40 L14.197292,56.9095758 L14.197292,72 L17.86146,67.2135758 L17.86146,56.8339394 L30.5,40 L1.5,40 L1.5,40 L1.5,40 L1.5,40 Z M16.0009792,54.2768485 L9.39137628,45.4749091 L22.6086237,45.4749091 L16.0009792,54.2768485 L16.0009792,54.2768485 Z M16.0009792,54.2768485" id="filter--body-grey" fill="#67737B" sketch:type="MSShapeGroup"></path>
        <path d="M1.5,0 L14.197292,16.9095758 L14.197292,32 L17.86146,27.2135758 L17.86146,16.8339394 L30.5,0 L1.5,0 L1.5,0 L1.5,0 L1.5,0 Z M16.0009792,14.2768485 L9.39137628,5.47490909 L22.6086237,5.47490909 L16.0009792,14.2768485 L16.0009792,14.2768485 Z M16.0009792,14.2768485" id="filter--title-grey" fill="#3A434E" sketch:type="MSShapeGroup"></path>
    </g>
</svg>

<svg width="32" height="232" viewBox="0 0 32 232" xmlns="http://www.w3.org/2000/svg" xmlns:sketch="http://www.bohemiancoding.com/sketch/ns"><title>filter</title><g sketch:type="MSPage" fill="none"><path d="M1.5 120l12.697 16.91v15.09l3.664-4.786v-10.38l12.639-16.834h-29zm14.501 14.277l-6.61-8.802h13.217l-6.608 8.802zm0 0" fill="#206FAC" sketch:type="MSShapeGroup"/><path d="M1.5 80l12.697 16.91v15.09l3.664-4.786v-10.38l12.639-16.834h-29zm14.501 14.277l-6.61-8.802h13.217l-6.608 8.802zm0 0" fill="#fff" sketch:type="MSShapeGroup"/><path d="M1.5 40l12.697 16.91v15.09l3.664-4.786v-10.38l12.639-16.834h-29zm14.501 14.277l-6.61-8.802h13.217l-6.608 8.802zm0 0" fill="#67737B" sketch:type="MSShapeGroup"/><path d="M1.5 0l12.697 16.91v15.09l3.664-4.786v-10.38l12.639-16.834h-29zm14.501 14.277l-6.61-8.802h13.217l-6.608 8.802zm0 0" fill="#3A434E" sketch:type="MSShapeGroup"/></g></svg>
